styles/3/Numix/22/places/pink-folder-download.svg

<?xml version="1.0" encoding="UTF-8" standalone="no"?>
<!-- Created with Inkscape (http://www.inkscape.org/) -->

<svg
   xmlns:dc="http://purl.org/dc/elements/1.1/"
   xmlns:cc="http://creativecommons.org/ns#"
   xmlns:rdf="http://www.w3.org/1999/02/22-rdf-syntax-ns#"
   xmlns:svg="http://www.w3.org/2000/svg"
   xmlns="http://www.w3.org/2000/svg"
   xmlns:sodipodi="http://sodipodi.sourceforge.net/DTD/sodipodi-0.dtd"
   xmlns:inkscape="http://www.inkscape.org/namespaces/inkscape"
   width="22"
   height="22"
   id="svg2"
   version="1.1"
   inkscape:version="0.91 r"
   sodipodi:docname="pink-folder-download.svg"
   inkscape:export-filename="/media/Data/Main/Visuals/Icons/Numix/Desktop/repos/numix-wiki/Gjorgi/Numix-folders/48/New/folder-144.png"
   inkscape:export-xdpi="270"
   inkscape:export-ydpi="270">
  <defs
     id="defs4" />
  <sodipodi:namedview
     id="base"
     pagecolor="#ffffff"
     bordercolor="#666666"
     borderopacity="1.0"
     inkscape:pageopacity="0.0"
     inkscape:pageshadow="2"
     inkscape:zoom="12.997153"
     inkscape:cx="-9.0259142"
     inkscape:cy="7.2129304"
     inkscape:document-units="px"
     inkscape:current-layer="layer1"
     showgrid="true"
     inkscape:window-width="1280"
     inkscape:window-height="998"
     inkscape:window-x="0"
     inkscape:window-y="0"
     inkscape:window-maximized="1"
     showguides="true"
     inkscape:guide-bbox="true">
    <inkscape:grid
       type="xygrid"
       id="grid2985"
       empspacing="5"
       visible="true"
       enabled="true"
       snapvisiblegridlinesonly="true" />
  </sodipodi:namedview>
  <metadata
     id="metadata7">
    <rdf:RDF>
      <cc:Work
         rdf:about="">
        <dc:format>image/svg+xml</dc:format>
        <dc:type
           rdf:resource="http://purl.org/dc/dcmitype/StillImage" />
        <dc:title />
      </cc:Work>
    </rdf:RDF>
  </metadata>
  <g
     inkscape:label="Layer 1"
     inkscape:groupmode="layer"
     id="layer1"
     transform="translate(0,-1030.3622)">
    <rect
       style="fill:#ec407a;fill-opacity:1;stroke:none"
       id="rect3757"
       width="20"
       height="5"
       x="0.99999928"
       y="1033.3622" />
    <path
       style="fill:#ec407a;fill-opacity:1;stroke:none"
       d="m 3.9999992,1034.3622 c 0,-1 0,-2 0.909091,-2 l 3.181819,0 c 0.90909,0 0.90909,1 0.90909,2 z"
       id="path3759"
       inkscape:connector-curvature="0"
       sodipodi:nodetypes="ccccc" />
    <path
       style="fill:#95989f;fill-opacity:1;stroke:none"
       d="m 2,1034.3622 17.999998,0 0,4 -17.999998,0 z"
       id="path3765"
       inkscape:connector-curvature="0" />
    <rect
       y="1034.3622"
       x="4.999999"
       height="6"
       width="14"
       id="rect3763"
       style="fill:#d8d8da;fill-opacity:1;stroke:none" />
    <rect
       style="fill:#f9f9f9;fill-opacity:1;stroke:none"
       id="rect3761"
       width="14"
       height="3.0000174"
       x="3"
       y="1035.3622" />
    <path
       style="fill:#f06292;fill-opacity:1;stroke:none"
       d="m 0,1036.3622 21.999999,0 -1,14 -19.9999994,0 z"
       id="path2987"
       inkscape:connector-curvature="0"
       sodipodi:nodetypes="ccccc" />
    <path
       style="opacity:1.0;fill:#c64077;fill-opacity:1;stroke:none"
       d="M 11 8 C 10.446 8 10 8.446 10 9 L 10 13 L 8.46875 13 C 7.837171 13 7.837171 12.9934 8.46875 13.625 L 10.375 15.53125 C 11.006579 16.16285 10.993421 16.16285 11.625 15.53125 L 13.53125 13.625 C 14.162829 12.9934 14.162829 13 13.53125 13 L 12 13 L 12 9 C 12 8.446 11.554 8 11 8 z M 6.375 12 C 6.1658155 12 6 12.223 6 12.5 L 6 17.5 C 6 17.56925 6.0121935 17.627641 6.03125 17.6875 C 6.0398376 17.71083 6.0505201 17.728494 6.0625 17.75 C 6.0781195 17.783892 6.103923 17.81584 6.125 17.84375 C 6.1788119 17.915007 6.2339967 17.950898 6.3125 17.96875 C 6.3335619 17.973539 6.3528747 18 6.375 18 L 6.5 18 L 6.625 18 L 15.5 18 C 15.699305 18 15.888307 17.886692 15.96875 17.71875 C 15.972283 17.710598 15.965667 17.695875 15.96875 17.6875 C 15.993984 17.627641 16 17.56925 16 17.5 L 16 12.5 C 16 12.223 15.777 12 15.5 12 C 15.223 12 15 12.223 15 12.5 L 15 17 L 7 17 L 7 12.5 C 7 12.223 6.8341845 12 6.625 12 L 6.375 12 z "
       transform="translate(0,1030.3622)"
       id="rect2989" />
  </g>
</svg>

<!-- Created with Inkscape (http://www.inkscape.org/) -->
<svg xmlns="http://www.w3.org/2000/svg" viewBox="0 0 22 22">
 <g transform="translate(0,-1030.3622)">
  <rect width="20" height="5" x="1" y="1033.36" style="fill:#ec407a;fill-opacity:1;stroke:none"/>
  <path d="m 4 1034.36 c 0 -1 0 -2 0.909 -2 l 3.182 0 c 0.909 0 0.909 1 0.909 2 z" style="fill:#ec407a;fill-opacity:1;stroke:none"/>
  <path d="m 2 1034.36 18 0 0 4 -18 0 z" style="fill:#95989f;fill-opacity:1;stroke:none"/>
  <rect y="1034.36" x="5" height="6" width="14" style="fill:#d8d8da;fill-opacity:1;stroke:none"/>
  <rect width="14" height="3" x="3" y="1035.36" style="fill:#f9f9f9;fill-opacity:1;stroke:none"/>
  <path d="m 0 1036.36 22 0 -1 14 -20 0 z" style="fill:#f06292;fill-opacity:1;stroke:none"/>
  <path d="m 11 8 c -0.554 0 -1 0.446 -1 1 l 0 4 l -1.531 0 c -0.632 0 -0.632 -0.007 0 0.625 l 1.906 1.906 c 0.632 0.632 0.618 0.632 1.25 0 l 1.906 -1.906 c 0.632 -0.632 0.632 -0.625 0 -0.625 l -1.531 0 l 0 -4 c 0 -0.554 -0.446 -1 -1 -1 z m -4.625 4 c -0.209 0 -0.375 0.223 -0.375 0.5 l 0 5 c 0 0.069 0.012 0.128 0.031 0.188 c 0.009 0.023 0.019 0.041 0.031 0.063 c 0.016 0.034 0.041 0.066 0.063 0.094 c 0.054 0.071 0.109 0.107 0.188 0.125 c 0.021 0.005 0.04 0.031 0.063 0.031 l 0.125 0 l 0.125 0 l 8.875 0 c 0.199 0 0.388 -0.113 0.469 -0.281 c 0.004 -0.008 -0.003 -0.023 0 -0.031 c 0.025 -0.06 0.031 -0.118 0.031 -0.188 l 0 -5 c 0 -0.277 -0.223 -0.5 -0.5 -0.5 c -0.277 0 -0.5 0.223 -0.5 0.5 l 0 4.5 l -8 0 l 0 -4.5 c 0 -0.277 -0.166 -0.5 -0.375 -0.5 l -0.25 0 z" transform="translate(0,1030.3622)" style="fill:#c64077;opacity:1;fill-opacity:1;stroke:none"/>
 </g>
</svg>
